archdroid-icon-theme/Archdroid-Blue/actions/scalable/media-optical-copy.svg

<svg xmlns="http://www.w3.org/2000/svg" fill="#2196F3" viewBox="0 0 48 48"><path d="m4 0c-2.21 0-4 1.79-4 4v28h4v-28h24v-4h-24m23 7c-11.05 0-20 8.95-20 20 0 11.05 8.95 20 20 20 11.05 0 20-8.95 20-20 0-11.05-8.95-20-20-20m0 29c-4.97 0-9-4.03-9-9 0-4.97 4.03-9 9-9 4.97 0 9 4.03 9 9 0 4.97-4.03 9-9 9zm0-11c-1.1 0-2 .9-2 2 0 1.1.9 2 2 2 1.1 0 2-.9 2-2 0-1.1-.9-2-2-2"/></svg>

<?xml version="1.0" encoding="UTF-8" standalone="no"?>
<svg
   xmlns:dc="http://purl.org/dc/elements/1.1/"
   xmlns:cc="http://creativecommons.org/ns#"
   xmlns:rdf="http://www.w3.org/1999/02/22-rdf-syntax-ns#"
   xmlns:svg="http://www.w3.org/2000/svg"
   xmlns="http://www.w3.org/2000/svg"
   xmlns:sodipodi="http://sodipodi.sourceforge.net/DTD/sodipodi-0.dtd"
   xmlns:inkscape="http://www.inkscape.org/namespaces/inkscape"
   fill="#2196F3"
   width="48"
   height="48"
   viewBox="0 0 48 48"
   id="svg2"
   version="1.1"
   inkscape:version="0.91 r13725"
   sodipodi:docname="media-optical-copy.svg">
  <metadata
     id="metadata10">
    <rdf:RDF>
      <cc:Work
         rdf:about="">
        <dc:format>image/svg+xml</dc:format>
        <dc:type
           rdf:resource="http://purl.org/dc/dcmitype/StillImage" />
        <dc:title></dc:title>
      </cc:Work>
    </rdf:RDF>
  </metadata>
  <defs
     id="defs8" />
  <sodipodi:namedview
     pagecolor="#ffffff"
     bordercolor="#666666"
     borderopacity="1"
     objecttolerance="10"
     gridtolerance="10"
     guidetolerance="10"
     inkscape:pageopacity="0"
     inkscape:pageshadow="2"
     inkscape:window-width="1366"
     inkscape:window-height="713"
     id="namedview6"
     showgrid="false"
     inkscape:snap-page="true"
     inkscape:snap-bbox="true"
     inkscape:bbox-paths="true"
     inkscape:snap-bbox-edge-midpoints="true"
     inkscape:bbox-nodes="true"
     inkscape:zoom="4.9166667"
     inkscape:cx="24.915254"
     inkscape:cy="24"
     inkscape:window-x="0"
     inkscape:window-y="30"
     inkscape:window-maximized="1"
     inkscape:current-layer="svg2" />
  <path
     id="path4151"
     style="fill:#2196F3"
     d="M 4,0 C 1.79,0 0,1.7899999 0,3.9999999 L 0,32 4,32 4,3.9999999 l 24.000002,0 L 28.000002,0 4,0 Z M 27,7 C 15.95,7 7,15.95 7,27 7,38.05 15.95,47 27,47 38.05,47 47,38.05 47,27 47,15.95 38.05,7 27,7 Z m 0,29 c -4.97,0 -9,-4.03 -9,-9 0,-4.97 4.03,-9 9,-9 4.97,0 9,4.03 9,9 0,4.97 -4.03,9 -9,9 z m 0,-11 c -1.1,0 -2,0.9 -2,2 0,1.1 0.9,2 2,2 1.1,0 2,-0.9 2,-2 0,-1.1 -0.9,-2 -2,-2 z" />
</svg>
